X:1
T:Title
%%score { ( 1 3 ) | 2 }
L:1/8
M:6/8
K:Db
V:1 treble nm="Grand Piano"
V:3 treble 
V:2 bass 
V:1
 z3 z2[Q:1/4=81] [DF]/[EG]/ | [FA]2 [Fd] [Fd]2 [Ac]/[CGB]/ | [DFA]2 [A,EG] [A,DF]2 [A,DF]/[A,DF]/ | %3
 [A,CE][A,DF]>[A,EG] [CGB]2 [CGA] | [A,DF]3- [A,DF] z [A,DF]/[A,EG]/ | %5
 [DFA]2 [Fd] [Fd]2 [Ac]/[GB]/ | [FA]2 [EG] F2 F/F/ | E>Ad c2 B |[M:5/8] [CA]- [CA]3 z | %9
[M:1/8] A/A/ |[M:3/4] [Fd]2 [Ad]/[Ad]/e d[CGB] | [DA]2- [D-GA] [DA]2 [DFA]/[DFA]/ | %12
 [DGB]2 [DGB]/[DGB]/ [DFA]2 [A,DF] | [A,CE]4 z [A,DF]/[A,EG]/ | %14
[M:7/8] [DFA]2 [Fd] [Fd]3 [Ac]/[GB]/ |[M:3/4] [FA]2 [EG] [DF]2 [FA]/[FA]/ | B>c d F2 [CE] | %17
[M:5/8] D- D3 z |] %18
V:2
 z3 z2 [D,A,]/[D,A,]/ | [D,D]2 [D,A,] [D,A,]2 [D,B,]/D,/ | D,2 D, D,2 D,/D,/ | %3
 A,,A,,>A,, A,,2 A,, | D,3- D, z D,/D,/ | D,2 [D,A,] [D,A,]2 [D,B,]/[D,C]/ | %6
 [D,D]2 [D,A,] [D,A,D]2 [D,A,D]/[D,A,D]/ | [E,A,C]>[E,A,C][E,B,E] [E,A,E]2 [E,=G,D] | %8
[M:5/8] [A,,A,]- [A,,A,]3 z |[M:1/8][K:treble] [A,G]/[A,G]/ | %10
[M:3/4][K:bass] [D,A,]2 [F,A,]/[F,A,]/ [G,B,G]2 G, | D,2 E, F,2 D,/D,/ | G,2 G,/G,/ D,2 D, | %13
 A,,4 z D,/D,/ |[M:7/8] D,2 [D,A,] [D,A,]3 [D,B,]/[D,C]/ | %15
[M:3/4] [D,D]2 [C,A,] [D,A,]2 [D,D]/[D,D]/ | [G,DG]>[G,CG] [G,B,G] [A,D]2 [A,,G,] | %17
[M:5/8] [D,F,]- [D,F,]3 z |] %18
V:3
 x6 | x6 | x6 | x6 | x6 | x6 | x6 | x6 |[M:5/8] x5 |[M:1/8] x |[M:3/4] x6 | F2 z2 z2 | x6 | x6 | %14
[M:7/8] x7 |[M:3/4] x6 | x6 |[M:5/8] x5 |] %18

